X:1
T:Turbatus est
T:Turbatus est
T:Bernhard Klingenstein
T:Source : Bicibiorum---Leipzig---J.Apelio---1612. Editor : André Vierendeels (25/04/15).
T:Notes : Original clefs : C1, C3 m16 in S : "si dotted quarter" notated as "si dotted eighth" in original print m33 in S : music adapted because of errors in the original print. 
C:Berhard Klingenstein
%%score [ 1 2 ]
L:1/8
Q:1/4=90
M:4/2
K:C
V:1 treble nm="Superius" snm="S"
V:2 treble-8 nm="Tenor" snm="T"
V:1
 z4 A6 GF G4 | F6 G2 A4 z2 F2 | D2 A4 G2 A2 B2 c2 d2 | e2 c2 B2 B2 AB c4 B2 | A4 G4 z2 c4 B2- | %5
w: Tur- * * *|ba- tus est a|fu- ro- re o- cu- lus me-|us in- ve- te- ra- * * *|* vi in- ter|
 B2 d4 c4 B4 A2- | A2 c4 B4 A2 G4 | c2 B2 A4 G4 F4 | E4 D4 A4 c2 B2 | A6 G2 A2 B2 A4 | %10
w: _ in- i- mi- cos|_ me- os, in- ter|in- i- mi- cos me-|* os, di- sce- di-|te a me o- mnes,|
 z2 G2 G3 ^F G2 A2 B2 G2 | A2 B2 c2 BA Bcdc B2 A2 | z2 A3 A E2 F2 G2 A2 F2 | E3 E E2 E3 D EF GEFG | %14
w: qui o- pe- ra- mi- ni in-|i- qui- ta- * * * * * * * tem,|quo- ni- am ex- au- di- vit|Do- mi- nus vo- * * * * * * *|
 AF G2 FGAB cd e2 d3 B | c3 A B3 G A3 F G2 A2- | A2 G2 A4 ^F2 G2 A2 F2 | E3 E D4 z2 d4 c2 | %18
w: * * * * * * * * * cem fle- *|* * * * * * me- *|* * i, ex- au- di- vit,|Do- mi- nus de- pre-|
 _B2 A2 B2 A2 G4 A2 F2- | F2 D2 D2 A4 F2 F2 c2- | c2 A2 A4 z2 e2 d2 c2 | B2 A2 c2 B2 A2 AB cdcB | %22
w: ca- ti- o- nem me- am, Do-|* mi- nus,- Do- mi- nus, Do-|* mi- nus, o- ra- ti-|o- nem me- am su- sce- * * * * *|
 AGFE/D/ E4 D4 A4- | A4 G4 A3 B c4 | A4 B2 c3 B A2 G2 cB | A2 G2 c3 B A2 G2 c3 B | %26
w: * * * * * * pit, e-|* ru- be- * *|scant et con- tur- ben- tur ve- *|men- ter, ve- he- men- ter, ve- he-|
 A2 G2 F2 G2 A3 B c2 B2- | B2 A4 G2 A4 c2 B2 | d4 c2 c2 B2 A2 ^G2 A2 | z2 E2 A3 G F2 D2 E2 G2- | %30
w: men- ter o- mnes in- i- mi- ci|_ me- i, con- ver- tan-|tur et e- ru- be- * scant,|et e- ru- be- scant, et- e-|
 GF E2 F2 G2 E2 D2 G2 Ac | BA G2 A2 Bd cB A2 B2 ce | ed c2 Bc dD G2 FE/D/ E2 E2 | D16 |] %34
w: * ru- be- scant, val- * de ve- lo- *|ci- * ter, ve- lo- * ci- * ter, ve- lo- *|ci- * ter, val- * de- _ ve- lo- * * * ci-|ter.|
V:2
 d8 fd f4 e2 | d2 d2 A2 _B2 A2 f2 e2 d2- | d2 c2 d2 e2 f2 g2 a2 f2 | e2 a4 g2 f2 e2 d2 d2 | %4
w: Tur- * * ba- tus|est, tur- ba- tus est a fu- ro|_ re o- cu- lus me- us, o-|cu- lus meus in- ve- te- ra-|
 c3 B/A/ B2 c2 F2 f2 e4 | g4 f4 e4 d4 | f4 e4 z2 f4 e2- | e2 g4 f4 e4 d2- | d2 ^c2 d2 d2 f4 e2 d2 | %9
w: * * * * * vi in- ter|in- i- mi- cos|me- os, in- ter|_ in- i- mi- cos-|_ me- os, di- sce- di- te|
 c2 d2 e4 d4 z2 c2 | c3 B c2 d2 e2 c2 d2 e2 | f2 ed efgf e2 d2 z2 d2- | dd A2 d2 ^c2 d2 _B2 A3 A | %13
w: a me o- mnes, qui|o- pe- ra- mi- ni in- i- qui-|ta- * * * * * * * tem, quo-|* ni- am ex- au- di- vit Do- mi-|
 A2 A3 G AB cBcA BcdB | cd e2 defg a4 f3 g | e3 f d3 e c3 d B2 c2 | B4 A2 ^c2 d2 e2 c2 d2- | %17
w: nus vo- * * * * * * * cem _ _ _|_ _ _ fle- * * * * * *|* * * * * * * tus|me i, ex- au- di- vit Do-|
 d2 ^c2 d2 a4 g2 f2 e2 | d3 c de f4 e2 f4 | z2 f4 d2 d2 a4 f2 | f4 z2 a2 a2 g2 f2 e2 | %21
w: * mi- nus de- pre- ca- ti-|o- nem me- * * * am,|Do- mi- nus, Do- mi-|nus, o- ra- ti- o- nem|
 g2 f2 e4 f6 ed | cB d4 ^c2 z2 f4 d2 | ABcd ef g4 f2 e2 f2- | fe d2 d2 cB ABcd e2 A2 | %25
w: me- am su- sce- * *|* * * pit, e- ru-|be- * * * * * * scant et con-|* * * tur- ben- * * * * * tur ve-|
 c3 B A2 G2 c3 B A2 G2 | F2 G2 A2 B2 c2 d2 e3 d | c2 BA B4 A2 f2 e2 g2- | g2 f2 a4 g3 f e2 f2 | %29
w: he- men- ter, ve- he- men- ter o-|mnes in- i- mi- ci me- * *|* * * * i, con- ver- tan-|* tur et e- ru- be- *|
 d2 c2 z2 A2 d3 c B2 c2 | A2 G2 A2 Bd cB A2 B2 ce | dc B2 c2 df ed c2 d2 ed | %32
w: * scant, et e- ru- be- scant|val- de ve- lo- * ci- * ter, ve- lo- *|ci- * ter, val- * * * * de ve- lo- *|
 cB A2 d2 f2 e2 d4 c2 | d16 |] %34
w: ci- * ter val- de ve- lo- ci-|ter.|

